X:401
T:Bothwell Castle 
C:Joe Buchanan's Scottish Tome - Page 356.0
I:356 0
C:Iain MacCrimmon
R:March
Z:Carl Allison
L:1/16
M:2/4
K:A
e>d | "Aa"c>Bc<e "Ea7"A2a2 | "Dd"f>ea>f "A"e>cB<A | "Aa"c>Bc<e "Ea"A2g>f | "B7"e>cB<A "E7"B2e>d |
"A"c>Bc<e "Ea7"A2a2 | "Dd"f>ea>f "A"e>cB>A | "F#m"c<ec<f "C7"e>cB<c | "Ad"A>A "A""E7"A2 :|
f>g | "Aa"a2>f2 "Ea"e>cB<A | "Aa"c<eA<f "Ea"e>cB<A | "Aa"a>ga>f "Ea"e>cB<A | "B7"c<eA<c "E7"B2f>g |
"Aa"a2>f2 "Ea"e>cB<A | "Aa"c<eA<f "Ea"e>cB<A | "F#m"c<ec<f "E7"e>cB<c | "Aa"A>A "Aa"A2"E7"f>g |
"Aa"a2>f2 "Ea"e>cB<A | "Aa"c<eA<f "Ea"e>cB<A | "Aa"a>ga>f "Ea"e>cB<A | "B7"c<eA<c "E7"B2e>d |
"Aa"c>Bc<e "C#a7"A2a2 | "Dd"f>ea>f "A"e>cB<A | "F#m"c>ec<f "C7"e>cB<c | "Aa"A2>"Aa"A2 "E7"A2 |]
A>B | "Aa"c2c>B "Aa"A2c>e | "Dd"f>ea>f "Aa"e>cB<A | "Aa"c2c>B "Ea"A>Bc<f | "B7"e>cB<A "E7"B2A>B |
"Aa"c2c>B "Aa"A2c>e | "Aa"f>ea>f "C#a"e>cB<A | "F#m"c<ec<f "G#e7"e>cB<c | "Aa"A2>"Aa"A2 "E7"A2 :|
f>g | "Aa"a>ee>f "Aa7"e>Ac<e | "Dd"f>ea>f "Aa"e>cB<A | "Aa"a>ee<f "Ea"e>Ac<f | "B7"e>cB<A "E7"B2g2 |
"Aa"a>ee>f "Ea7"e>Ac<e | "Dd"f>ea>f "A"e>cB<A | "F#m"c<ec<f "E7"e>cB<c | "Aa"A2>A2 "Aa"A2"E7"fg |
"Aa"a>ee>f "Aa7"e>Ac<e | "Dd"f>ea>f "Aa"e>cB<A | "Aa"a<ee>f "Ea"e>Ac<f | "B7"e>cB<A "E7"B2e>d |
"Aa"c>Bc<e "A"A2a2 | "Dd"f>ea>f "A"e>cB<A | "F#m"c<ec>f "E7"e>cB<c | "Aa"A2>A2 "Aa"A2 |]

